resources/haticons/SVG/copy.svg

<!-- Generated by IcoMoon.io -->
<svg version="1.1" xmlns="http://www.w3.org/2000/svg" width="24" height="24" viewBox="0 0 24 24">
<title>copy</title>
<path d="M15 6v-6h-10.5l-4.5 4.5v13.5h9v6h15v-18h-9zM4.5 2.121v2.379h-2.379l2.379-2.379zM1.5 16.5v-10.5h4.5v-4.5h7.5v4.5l-4.5 4.5v6h-7.5zM13.5 8.121v2.379h-2.379l2.379-2.379zM22.5 22.5h-12v-10.5h4.5v-4.5h7.5v15z"></path>
</svg>

<svg xmlns="http://www.w3.org/2000/svg" width="24" height="24"><path d="M15 6V0H4.5L0 4.5V18h9v6h15V6h-9zM4.5 2.121V4.5H2.121L4.5 2.121zM1.5 16.5V6H6V1.5h7.5V6L9 10.5v6H1.5zm12-8.379V10.5h-2.379L13.5 8.121zm9 14.379h-12V12H15V7.5h7.5v15z"/></svg>
